X: 166
M: 2/4
L: 1/8
K: D
|:\
|:\
aaad' | bbbd' | babd' | a2a2 |\
[ec][ec][ec][ge] | fffa | edec | d2D2 :|

